X: 15922
T: Grande Nuit In Port Du Peche
R: reel
M: 4/4
K: Bminor
B2fB dfff|BgfB dfff|Bgfd fecd|efff edcA:|
B2dB deee|Bfec dcBA|B2dB deee|Bfec d2c/B/A|
B2dB deee|Bfec dcBA|B2dB deee|Bfec dcBA|
|:B2ag fBBB|B2ag efff|efff Bagf|deee fedc:|
B2dB deee|Bfec dcBA|B2dB deee|Bfec d2c/B/A|
B2dB deee|Bfec dcBA|B2dB deee|Bfec dcBA||

